svgs/solid/ice-skate.svg

<svg xmlns="http://www.w3.org/2000/svg" viewBox="0 0 576 512"><!-- Font Awesome Pro 6.0.0-alpha2 by @fontawesome - https://fontawesome.com License - https://fontawesome.com/license (Commercial License) --><path d="M64 384H480C497.674 384 512 369.672 512 352V315C512 270.875 482 232.625 439.25 221.875L320 192H272C263.199 192 256 184.797 256 176C256 167.199 263.199 160 272 160H320V128H272C263.199 128 256 120.797 256 112C256 103.199 263.199 96 272 96H320V16C320 7.199 312.801 0 304 0H272C263.199 0 256 7.199 256 16V32L78.375 82.75C50.875 90.625 32 115.75 32 144.25V352C32 369.672 46.326 384 64 384ZM560 416H544C535.199 416 528 423.199 528 432V440C528 453.254 517.254 464 504 464H432V416H384V464H144V416H96V464H32C14.4 464 0 478.398 0 496C0 504.797 7.199 512 16 512H512C547.199 512 576 483.199 576 448V432C576 423.199 568.801 416 560 416Z"/></svg>

<svg xmlns="http://www.w3.org/2000/svg" viewBox="0 0 576 512"><!-- Font Awesome Pro 5.15.1 by @fontawesome - https://fontawesome.com License - https://fontawesome.com/license (Commercial License) --><path d="M568 416h-32c-4.4 0-8 3.6-8 8v16c0 13.3-10.7 24-24 24h-72v-48h-48v48H144v-48H96v48H8c-4.4 0-8 3.6-8 8v32c0 4.4 3.6 8 8 8h504c35.3 0 64-28.7 64-64v-24c0-4.4-3.6-8-8-8zM64 384h416c17.7 0 32-14.3 32-32v-37c0-44.1-30-82.4-72.7-93.1L320 192h-56c-4.4 0-8-3.6-8-8v-16c0-4.4 3.6-8 8-8h56v-32h-56c-4.4 0-8-3.6-8-8v-16c0-4.4 3.6-8 8-8h56V16c0-8.8-7.2-16-16-16h-32c-8.8 0-16 7.2-16 16v16L78.4 82.7c-27.5 7.9-46.4 33-46.4 61.5V352c0 17.7 14.3 32 32 32z"/></svg>
